X:12912
T:Pata Pata
O:South Africa
M:4/4
L:1/8
Q:1/4=120
K:BbMix
E3G G3G|A3F F2F2|B3G G3G|B8|
|:"Eb".G2 .B2 EG .B2|.B,2 .G2 B2 A2| .G2 .B2 EG .B2|.B,2 G2 B4:|
"Ebm"EF_GF EFGF|"Eb"E2 F2 "Ebm"_G2 F2| "Ebm"EF_GF EFGF|"Eb"E2 F2 "Ebm"_G2 F2|
"Eb"GAB2 GAB2|G2 A2 B2 A2| GAB2 GAB2|G2 A2 B4|
